X:1
T:Speak to My Soul
T:Leander Lycurgus Pickett, 1897
T:Speak to My Soul
T:Public Domain
T:Public Domain
T:Public Domain
C:Leander Lycurgus Pickett, 1897
Z:Public Domain
%%score ( 1 2 ) ( 3 4 )
L:1/8
M:6/8
K:Eb
V:1 treble 
V:2 treble 
V:3 bass 
V:4 bass 
V:1
 [GB][Ac][GB] [EG]2 [EB] | [DA]3 [DA]2 z | [FA][GB][FA] [DF]2 [FA] | [EG]3- [EG]2 z | %4
w: 1.~Speak to my soul, dear|Je- sus,|Speak now in tend- ’rest|tone; *|
w: 2.~Speak to Thy child- ren|ev- er,|Lead in the ho- ly|way; *|
w: 3.~Speak now as in the|old time|Thou didst re- veal Thy|will; *|
 [EG][EA][EG] E2 [EG] | [EF]3 [EF]2 z | [DF][EG][FA] [EG]2 [DF] | [EG]3- [EG]2 z | %8
w: Whis- per in lov- ing|ness, “Thou|art not left a- lone.”|O- *|
w: Fill them with joy and|ness, Teach|them to watch and pray.|May *|
w: Let me know all my|ty, Let|me Thy law ful- fill.|Lead *|
 [GB][Ac][GB] [EG]2 [EB] | [DA]3 [DA]2 z | [FA][GB][FA] [DF]2 [FA] | [EG]3- [EG]2 z | %12
w: pen my heart to hear|Thee, Quick-|ly to hear Thy voice,|Fill *|
w: they in con- se- cra-|tion Yield|their whole lives to Thee,|Hast- *|
w: me to glor- i- fy|Thee, Help|me to show Thy praise,|Glad- *|
 [EG][EA][EG] E2 [EG] | [EF]3 [EF]2 z | [DF][EG][FA] [EG]2 [DF] | E3- E2 z |: %16
w: Thou my soul with prais-|Let me|in Thee re- joice. *||
w: en Thy com- ing king-|Till our|dear Lord we see. *||
w: ly to do Thy bid-|Hon- or|Thee all my days. *||
"^Refrain" [GB][Gc][Gd] [Ge]2 [Ge] | [Ad]3 [DA]2 z | [FA][GB][Ac] [Ad]2 [Ac] | [GB]3- [GB]2 z | %20
w: ||||
w: ||||
w: ||||
 [EG][FA][GB] [=Ec]2 [EG] | [GB]3 [FA]2 z | [DF][EG][FA] [EG]2 [DF] | [EG]3- [EG]2 z :| [DF] | %25
w: |||||
w: |||||
w: |||||
 E3- E2 z |] %26
w: |
w: |
w: |
V:2
 x6 | x6 | x6 | x6 | x3 E2 x | x6 | x6 | x6 | x6 | x6 | x6 | x6 | x3 E2 x | x6 | x6 | E3- E2 x |: %16
w: ||||kind-||||||||es,||||
w: ||||glad-||||||||dom,||||
w: ||||du-||||||||ding,||||
 x6 | x6 | x6 | x6 | x6 | x6 | x6 | x6 :| x | E3- E2 x |] %26
w: ||||||||||
w: ||||||||||
w: ||||||||||
V:3
 [E,E][E,E][E,E] [E,B,]2 [E,G,] | [F,B,]3 [F,B,]2 z | [B,,B,][B,,B,][B,,B,] [B,,B,]2 [B,,B,] | %3
w: ~ ~ ~ ~ ~|~ ~|~ ~ ~ ~ ~|
w: ~ ~ ~ ~ ~|~ ~|~ ~ ~ ~ ~|
 [E,B,]3- [E,B,]2 z | [E,B,][E,C][E,B,] [E,G,]2 [E,B,] | [A,,C]3 [A,,C]2 z | %6
w: ~ *|~ ~ ~ ~ ~|~ ~|
w: ~ *|~ ~ ~ ~ ~|~ ~|
 [B,,B,][B,,B,][B,,B,] [B,,B,]2 [B,,B,] | [E,B,]3- [E,B,]2 z | [E,E][E,E][E,E] [E,B,]2 [E,G,] | %9
w: ~ ~ ~ ~ ~|~ *|~ ~ ~ ~ ~|
w: ~ ~ ~ ~ ~|~ *|~ ~ ~ ~ ~|
 [F,B,]3 [F,B,]2 z | [B,,B,][B,,B,][B,,B,] [B,,B,]2 [B,,B,] | [E,B,]3- [E,B,]2 z | %12
w: ~ ~|~ ~ ~ ~ ~|~ *|
w: ~ ~|~ ~ ~ ~ ~|~ *|
 [E,B,][E,C][E,B,] [E,G,]2 [E,B,] | [A,,C]3 [A,,C]2 z | [B,,B,][B,,B,][B,,B,] [B,,B,]2 [B,,B,] | %15
w: ~ ~ ~ ~ ~|~ ~|~ ~ ~ ~ ~|
w: ~ ~ ~ ~ ~|~ ~|~ ~ ~ ~ ~|
 [E,G,]3- [E,G,]2 z |: [E,B,][E,B,][E,B,] [E,B,]2 [E,B,] | [F,B,]3 [F,B,]2 z | %18
w: ~ *|Speak Thou in soft- est|whis- pers|
w: ~ *|Speak Thou to me each|day, Lord,|
 [B,,B,][B,,B,][B,,B,] (B,C)[B,,D] | [E,E]3- [E,E]2 z | [E,B,][E,B,][E,G,] [C,G,]2 [C,C] | %21
w: Whis- pers of love * to|“Thou *|shalt be al- ways conq-|
w: Al- ways in ten- * d’rest|Let *|me now hear Thy whis-|
 [F,C]3 [F,C]2 z | [B,,B,][B,,B,][B,,B,] [B,,B,]2 [B,,B,] | [E,B,]3- [E,B,]2 z :| [B,,A,] | %25
w: ’ror, Thou|shalt be al- ways free.”|||
w: per, “Thou|art not left ~ ~|a- *|lone.”|
 [E,G,]3- [E,G,]2 z |] %26
w: |
w: |
V:4
 x6 | x6 | x6 | x6 | x6 | x6 | x6 | x6 | x6 | x6 | x6 | x6 | x6 | x6 | x6 | x6 |: x6 | x6 | %18
w: ||||||||||||||||||
w: ||||||||||||||||||
 x3 B,,2 x | x6 | x6 | x6 | x6 | x6 :| x | x6 |] %26
w: me,||||||||
w: tone,||||||||

